src/assets/img/svg_sources/logo.svg

<svg width="60" height="60" viewBox="0 0 60 60" fill="none" xmlns="http://www.w3.org/2000/svg">
<path fill-rule="evenodd" clip-rule="evenodd" d="M0.137314 0.184692V24.2938V36.3483V47.6939V59.7485H12.5148H26.6086V47.6939H12.5148V36.3483H20.8817L27.7391 24.2938H12.5148V11.9538L0.137314 0.184692Z" fill="#E86B1D"/>
<path fill-rule="evenodd" clip-rule="evenodd" d="M59.8626 29.9667C59.8626 13.5715 46.2593 0.274342 29.4457 0.188688V0.184692H5.13671L7.72158 2.70213H29.2831C44.7195 2.70213 57.2777 14.933 57.2777 29.9667C57.2777 44.7465 45.1398 56.8167 30.0621 57.22V59.739C46.5908 59.3364 59.8626 46.1609 59.8626 29.9667Z" fill="#F3F2F2"/>
<path fill-rule="evenodd" clip-rule="evenodd" d="M50.2159 29.9665C50.2159 18.7784 40.9131 9.66986 29.4457 9.58395V9.57996H15.0016L17.5864 12.0974H29.2831C39.4164 12.0974 47.6311 20.0977 47.6311 29.9665C47.6311 39.581 39.8336 47.4187 30.0621 47.8165V50.334C41.2444 49.9329 50.2159 40.9532 50.2159 29.9665Z" fill="#F3F2F2"/>
</svg>

<svg width="60" height="60" viewBox="0 0 60 60" fill="none" xmlns="http://www.w3.org/2000/svg"><path fill-rule="evenodd" clip-rule="evenodd" d="M.137.185v59.563H26.61V47.694H12.515V36.348h8.367l6.857-12.054H12.515v-12.34L.137.184z" fill="#E86B1D"/><path fill-rule="evenodd" clip-rule="evenodd" d="M59.863 29.967C59.863 13.572 46.259.274 29.446.189V.185H5.136l2.586 2.517h21.561c15.436 0 27.995 12.231 27.995 27.265 0 14.78-12.138 26.85-27.216 27.253v2.519c16.529-.403 29.8-13.578 29.8-29.772z" fill="#F3F2F2"/><path fill-rule="evenodd" clip-rule="evenodd" d="M50.216 29.966c0-11.188-9.303-20.296-20.77-20.382V9.58H15.002l2.584 2.517h11.697c10.133 0 18.348 8 18.348 17.87 0 9.614-7.797 17.452-17.569 17.85v2.517c11.182-.401 20.154-9.38 20.154-20.368z" fill="#F3F2F2"/></svg>
